build/img/doc-star.svg

<svg width="24" height="24" viewBox="0 0 24 24" fill="none" xmlns="http://www.w3.org/2000/svg">
<path d="M19.0019 10.9994V7.82611C19.0019 7.29588 18.7908 6.78667 18.4157 6.41152L15.5865 3.58234C15.2113 3.20718 14.7021 2.99609 14.1719 2.99609H6.99693C5.89147 2.99609 4.99609 3.89147 4.99609 4.99693V19.0028C4.99609 20.1082 5.89147 21.0036 6.99693 21.0036H11.999" stroke="currentColor" fill="none" stroke-width="1.5" stroke-linecap="round" stroke-linejoin="round"/>
<path d="M19.0021 7.99818H15.0004C14.4482 7.99818 14 7.54999 14 6.99776V2.99609" stroke="currentColor" fill="none" stroke-width="1.5" stroke-linecap="round" stroke-linejoin="round"/>
<path d="M18.3454 20.026L20.1012 20.9484C20.4433 21.1285 20.8425 20.8373 20.7774 20.4572L20.4423 18.5024L21.8629 17.1188C22.14 16.8497 21.9869 16.3795 21.6048 16.3245L19.642 16.0393L18.7646 14.2596C18.5935 13.9135 18.0993 13.9135 17.9292 14.2596L17.0519 16.0393L15.0891 16.3245C14.7069 16.3805 14.5538 16.8497 14.831 17.1188L16.2515 18.5024L15.9154 20.4582C15.8504 20.8383 16.2495 21.1285 16.5917 20.9494L18.3474 20.027" stroke="currentColor" fill="none" stroke-width="1.5" stroke-linecap="round" stroke-linejoin="round"/>
</svg>

<svg width="24" height="24" viewBox="0 0 24 24" fill="none" xmlns="http://www.w3.org/2000/svg"><path d="M19.002 11V7.825c0-.53-.211-1.04-.586-1.414l-2.83-2.83a2.002 2.002 0 00-1.414-.586H6.997a2 2 0 00-2 2v14.007a2 2 0 002 2h5.002" stroke="currentColor" stroke-width="1.5" stroke-linecap="round" stroke-linejoin="round"/><path d="M19.002 7.998H15a1 1 0 01-1-1V2.996m4.345 17.03l1.756.922a.466.466 0 00.676-.49l-.335-1.956 1.42-1.383a.465.465 0 00-.257-.794l-1.963-.286-.877-1.78a.466.466 0 00-.836 0l-.877 1.78-1.963.285a.465.465 0 00-.258.795l1.42 1.383-.336 1.956c-.065.38.335.67.677.491l1.755-.922" stroke="currentColor" stroke-width="1.5" stroke-linecap="round" stroke-linejoin="round"/></svg>
